!! 00000] TT[00
!! NN
!!!OTL: Liao hao
!!!ARE: Asia, China,ÿShandong, Jinan
!! Ethnic Group: Han
!! III, 364
!!!SCT: C0308
!!!YEM: Copyright 1995, estate of Helmut Schaffrath.
**kern
*ICvox
*Ivox
!! Mixed meters:  4/4; 1/4
*M3/4
*k[]
*C:
{8.ee
16dd
8cc
8cc
16dd
16b
16g
16b
8a
8a}
=1
{8cc
16cc
16dd
8g
16g
16a
16cc
16a
16cc
16a
8cc
8cc}
=2
{8e
16e
16g
8b
8dd
16.a
32g
16a
16a
8g
8g}
=3
{8cc
16cc
16dd
8g
16g
16a
16cc
16a
16cc
16a
8cc
8cc}
=4
{8.ee
16dd
8cc
16cc
16cc
16dd
16b
16g
16b
8a
8a}
=5
{8cc
16cc
16dd
8g
16g
16a
16cc
16a
16cc
16a
8cc
8cc}
=6
{16ee
16ee
16ee
16dd
16gg
16r
16cc
16r
4cc
8dd
8r}
=7
{8dd
16gg
16ee
8dd
8cc
16dd
16cc
16dd
16ee
8.cc
16a
=8
4cc}
==
!!!AGN: Haozi, Huanghe wohao. Tongyi dongzuo, Tiaojie jingli.
!!    Chang lishi chuanshuo
!! Es geht darum, kleine Steine festzuklopfen. Bei groesseren
!!    waere das Tempo langsamer. +++ein einzelner 1/4-Takt = Quatsch?++++
!!    Vereinzelt Verzierungen.
!!!ONB: ESAC (Essen Associative Code) Database: CHINA
!!!AMT: irregular
!!!AIN: vox
!!!EED: Helmut Schaffrath
!!!EEV: 1.0
*-
